static/assets/images/exchanges/camelot.svg

<svg width="169" height="256" viewBox="0 0 169 256" fill="none" xmlns="http://www.w3.org/2000/svg">
<path d="M168.972 103.801C148.615 92.4433 125.738 85.066 101.394 82.7189V130.462L84.5 137.733L67.6057 130.462V82.7189C43.8689 85.003 20.8608 92.1808 0.028265 103.801C0.028265 103.801 -4.0113 215.316 84.4941 256H84.5059C173.011 215.322 168.972 103.801 168.972 103.801ZM116.828 157.035L85.5658 170.486L100.735 170.639C101.094 170.639 101.353 212.45 101.277 212.556L84.4941 237.695L67.5998 212.391C67.5998 212.391 67.8942 170.315 68.2534 170.315L83.3694 170.468L33.8052 149.144L52.1599 141.248L84.2291 155.047C84.394 155.118 84.5825 155.118 84.7414 155.047L116.811 141.248L135.165 149.144L116.811 157.04L116.828 157.035Z" fill="#F58B00"/>
<path d="M135.183 164.931L116.828 157.035L84.7591 170.834C84.5942 170.905 84.4058 170.905 84.2468 170.834L52.1776 157.035L33.8229 164.931L84.5059 186.738L135.189 164.931H135.183Z" fill="#FFF3D4"/>
<path d="M135.183 133.293C135.183 133.293 116.41 125.214 101.394 118.756V130.456L84.5 137.727L67.6057 130.456V118.756L35.2126 132.697C34.6885 132.921 34.6885 133.67 35.2126 133.9L84.2409 154.994C84.4058 155.065 84.5942 155.065 84.7532 154.994L135.177 133.299L135.183 133.293Z" fill="#FFF3D4"/>
<path d="M142.161 64.1194C127.31 59.6494 111.735 56.8542 95.6589 55.9519L91.8195 21.2827C91.7253 20.4099 92.0021 19.5372 92.5909 18.8885C94.4282 16.8835 95.547 14.2121 95.547 11.2753C95.547 5.04794 90.5064 0 84.288 0H84.2291C78.0108 0 72.9702 5.04794 72.9702 11.2753C72.9702 14.2121 74.089 16.8835 75.9262 18.8885C76.2189 19.2087 76.4393 19.5883 76.5725 20.0014C76.7056 20.4146 76.7483 20.8516 76.6976 21.2827L72.8583 55.9519C56.7765 56.8542 41.2071 59.6435 26.3561 64.1194L33.4165 80.195L33.9171 80.0358C49.7809 75.3888 67.0109 73.0713 84.2468 73.0713C101.489 73.0713 118.73 75.3888 134.6 80.0358L135.112 80.1596L142.161 64.1194Z" fill="#FFF3D4"/>
</svg>

<svg xmlns="http://www.w3.org/2000/svg" fill="none" viewBox="0 0 169 256"><path fill="#F58B00" d="M168.972 103.801a172.45 172.45 0 0 0-67.578-21.082v47.743L84.5 137.733l-16.894-7.271V82.719A172.7 172.7 0 0 0 .028 103.8S-4.012 215.316 84.494 256h.012c88.505-40.678 84.466-152.199 84.466-152.199m-52.144 53.234-31.262 13.451 15.169.153c.359 0 .618 41.811.542 41.917l-16.783 25.139L67.6 212.391s.294-42.076.653-42.076l15.116.153-49.564-21.324 18.355-7.896 32.07 13.799a.64.64 0 0 0 .511 0l32.07-13.799 18.354 7.896-18.354 7.896z"/><path fill="#FFF3D4" d="m135.183 164.931-18.355-7.896-32.069 13.799a.64.64 0 0 1-.512 0l-32.07-13.799-18.354 7.896 50.683 21.807 50.683-21.807zm0-31.638s-18.773-8.079-33.789-14.537v11.7L84.5 137.727l-16.894-7.271v-11.7l-32.393 13.941c-.525.224-.525.973 0 1.203l49.028 21.094a.64.64 0 0 0 .512 0l50.424-21.695zm6.978-69.173a200 200 0 0 0-46.502-8.168l-3.84-34.67a3.07 3.07 0 0 1 .772-2.393 11.23 11.23 0 0 0 2.956-7.614C95.547 5.048 90.507 0 84.288 0h-.059C78.011 0 72.97 5.048 72.97 11.275a11.23 11.23 0 0 0 2.956 7.614 3.03 3.03 0 0 1 .772 2.394l-3.84 34.669a199.8 199.8 0 0 0-46.502 8.167l7.06 16.076.501-.16c15.864-4.646 33.094-6.964 50.33-6.964 17.242 0 34.483 2.318 50.353 6.965l.512.124z"/></svg>
